svg/fluentui-system-icons/ic_fluent_arrow_reply_all_16_filled.svg

<svg width="16" height="16" viewBox="0 0 16 16" fill="none" xmlns="http://www.w3.org/2000/svg">
<path d="M9.31567 3.18451C9.58194 3.45078 9.60614 3.86744 9.38829 4.16106L9.31567 4.24517L7.05981 6.49984L8.24981 6.50038C11.9013 6.50038 14.3823 8.57702 14.4957 11.5374L14.4998 11.7504C14.4998 12.1646 14.164 12.5004 13.7498 12.5004C13.3356 12.5004 12.9998 12.1646 12.9998 11.7504C12.9998 9.62152 11.3078 8.09249 8.50742 8.00439L8.24981 8.00038L7.05981 7.99984L9.31567 10.2556C9.60856 10.5485 9.60856 11.0233 9.31567 11.3162C9.0494 11.5825 8.63274 11.6067 8.33913 11.3889L8.25501 11.3162L4.71948 7.78071L4.65091 7.70191L4.61037 7.64254L4.56129 7.54827L4.52848 7.45647L4.51259 7.38866L4.50368 7.32678L4.5 7.23316L4.50368 7.17398L4.5193 7.08003L4.54975 6.98075L4.59617 6.88221L4.63098 6.82651L4.65681 6.79084L4.71948 6.72005L8.25501 3.18451C8.5479 2.89162 9.02278 2.89162 9.31567 3.18451ZM1.21967 6.72005L4.71967 3.22005C5.01256 2.92715 5.48744 2.92715 5.78033 3.22005C6.0466 3.48631 6.0708 3.90298 5.85295 4.19659L5.78033 4.28071L2.81066 7.25038L5.78033 10.22C6.07322 10.5129 6.07322 10.9878 5.78033 11.2807C5.51406 11.547 5.0974 11.5712 4.80379 11.3533L4.71967 11.2807L1.21967 7.78071C0.953403 7.51444 0.929197 7.09778 1.14705 6.80417L1.21967 6.72005L4.71967 3.22005L1.21967 6.72005Z" fill="#212121"/>
</svg>

<svg xmlns="http://www.w3.org/2000/svg" width="16" height="16"><path d="M9.316 3.185a.75.75 0 0 1 .072.976l-.072.084L7.06 6.5h1.19c3.651 0 6.132 2.077 6.246 5.037l.004.213a.75.75 0 0 1-1.5 0c0-2.128-1.692-3.658-4.493-3.746L8.25 8H7.06l2.256 2.256a.75.75 0 0 1-.977 1.133l-.084-.073-3.536-3.535-.068-.08-.04-.058-.05-.095-.033-.092-.015-.067-.01-.062-.003-.094.004-.059.015-.094.03-.1.047-.098.035-.055.026-.036.062-.071 3.536-3.535a.75.75 0 0 1 1.06 0ZM1.22 6.72l3.5-3.5a.75.75 0 0 1 1.133.977l-.073.084-2.97 2.97 2.97 2.969a.75.75 0 0 1-.976 1.133l-.084-.072-3.5-3.5a.75.75 0 0 1-.073-.977l.073-.084 3.5-3.5-3.5 3.5Z"/></svg>
